cssgg/sand-clock.svg

<svg
  width="24"
  height="24"
  viewBox="0 0 24 24"
  fill="none"
  xmlns="http://www.w3.org/2000/svg"
>
  <path
    d="M13 6H11V7C11 7.55228 11.4477 8 12 8C12.5523 8 13 7.55228 13 7V6Z"
    fill="currentColor"
  />
  <path
    fill-rule="evenodd"
    clip-rule="evenodd"
    d="M6 2V4H7V7C7 9.76142 9.23858 12 12 12C9.23858 12 7 14.2386 7 17V20H6V22H18V20H17V17C17 14.2386 14.7614 12 12 12C14.7614 12 17 9.76142 17 7V4H18V2H6ZM9 4H15V7C15 8.65685 13.6569 10 12 10C10.3431 10 9 8.65685 9 7V4ZM9 17V20H15V17C15 15.3431 13.6569 14 12 14C10.3431 14 9 15.3431 9 17Z"
    fill="currentColor"
  />
</svg>

<svg viewBox="0 0 24 24" xmlns="http://www.w3.org/2000/svg"><g><path d="M13 6h-2v1c0 .55.44 1 1 1 .55 0 1-.45 1-1V6Z"/><path fill-rule="evenodd" d="M6 2v2h1v3c0 2.76 2.23 5 5 5 -2.77 0-5 2.23-5 5v3H6v2h12v-2h-1v-3c0-2.77-2.24-5-5-5 2.76 0 5-2.24 5-5V4h1V2H6Zm3 2h6v3c0 1.65-1.35 3-3 3 -1.66 0-3-1.35-3-3V4Zm0 13v3h6v-3c0-1.66-1.35-3-3-3 -1.66 0-3 1.34-3 3Z"/></g></svg>
